X:210
T: Dusty Miller with variations
N: O'Farrell's Pocket Companion v.3 (Sky ed. p.105)
N: "Irish"
M: 6/8 % my change - original marked 3/4
L: 1/8
Q: 200
K: G
G |: B>c dB AG| FA A>B cA| B>c dB AG| DG G>A BG :|
P:2
B>c de fg| aA AB cA| Bd eg fe/f/| gG GA BG :|
P:3
e/f/g/e/ dG BA/G/| EA AB cA| g/f/g/e/ dG BA/G/| dG GA BG :|
P:4
g/f/g/d/ g/a/b/g/ ag/f/| ge ea fd| g/a/b/g/ e/d/e/f/ g/f/g/e/|
dG GA BG :|
P:5
ce BG d/B/A/G/| EA AB cA| c/e/g/e/ dG B/A/B/G/| DG GA BG|
ce BG d/B/A/G/| EA AB cA| B/G/B/d/ e/d/e/f/ g/f/g/e/|
DG G>A BG ||
